static/img/emoji/svg/angry-black-emoticon-face.svg

<svg xmlns="http://www.w3.org/2000/svg" width="478.125" height="478.125" viewBox="0 0 478.125 478.125"><path d="M239.062 0C107.1 0 0 107.1 0 239.062c0 131.963 107.1 239.062 239.062 239.062 131.963 0 239.062-107.1 239.062-239.062C478.125 107.1 371.025 0 239.062 0zm93.713 114.75l11.475 15.3-65.025 42.075-11.475-15.3 65.025-42.075zm-187.425 0l63.112 42.075-9.562 15.3-63.112-42.075 9.562-15.3zm-11.475 76.5c0-11.475 7.65-19.125 19.125-19.125s19.125 7.65 19.125 19.125-7.65 19.125-19.125 19.125-19.125-7.65-19.125-19.125zm105.187 153c-57.375 0-86.062 19.125-86.062 19.125S172.125 306 239.062 306s86.062 57.375 86.062 57.375-28.686-19.125-86.062-19.125zm86.063-133.875c-11.475 0-19.125-7.65-19.125-19.125s7.65-19.125 19.125-19.125 19.125 7.65 19.125 19.125-7.65 19.125-19.125 19.125z"/></svg>

<?xml version="1.0" encoding="iso-8859-1"?>
<!-- Generator: Adobe Illustrator 16.0.0, SVG Export Plug-In . SVG Version: 6.00 Build 0)  -->
<!DOCTYPE svg PUBLIC "-//W3C//DTD SVG 1.1//EN" "http://www.w3.org/Graphics/SVG/1.1/DTD/svg11.dtd">
<svg version="1.1" id="Capa_1" xmlns="http://www.w3.org/2000/svg" xmlns:xlink="http://www.w3.org/1999/xlink" x="0px" y="0px"
	 width="478.125px" height="478.125px" viewBox="0 0 478.125 478.125" style="enable-background:new 0 0 478.125 478.125;"
	 xml:space="preserve">
<g>
	<path d="M239.062,0C107.1,0,0,107.1,0,239.062c0,131.963,107.1,239.062,239.062,239.062c131.963,0,239.062-107.1,239.062-239.062
		C478.125,107.1,371.025,0,239.062,0z M332.775,114.75l11.475,15.3l-65.025,42.075l-11.475-15.3L332.775,114.75z M145.35,114.75
		l63.112,42.075l-9.562,15.3l-63.112-42.075L145.35,114.75z M133.875,191.25c0-11.475,7.65-19.125,19.125-19.125
		s19.125,7.65,19.125,19.125s-7.65,19.125-19.125,19.125S133.875,202.725,133.875,191.25z M239.062,344.25
		c-57.375,0-86.062,19.125-86.062,19.125S172.125,306,239.062,306s86.062,57.375,86.062,57.375S296.438,344.25,239.062,344.25z
		 M325.125,210.375c-11.475,0-19.125-7.65-19.125-19.125s7.65-19.125,19.125-19.125s19.125,7.65,19.125,19.125
		S336.6,210.375,325.125,210.375z"/>
</g>
<g>
</g>
<g>
</g>
<g>
</g>
<g>
</g>
<g>
</g>
<g>
</g>
<g>
</g>
<g>
</g>
<g>
</g>
<g>
</g>
<g>
</g>
<g>
</g>
<g>
</g>
<g>
</g>
<g>
</g>
</svg>
